X: 1799
T: Sultan Murat Der ki
C: (Anonim)
O: Turkey
F: http://compmusic.upf.edu/node/140
N: nisabur--turku--nimsofyan--sultan_murat--
N: makam= nisabur
N: form= turku
N: usul= nimsofyan = 2/4
M: 2/4
L: 1/16
K: C ^c   
Q: 1/4=72
%%MIDI tuningsystem comma53
dcB2 dcB2  | A2Bc dcd2  | dcB2 dcB2  | cd/e/de d2d2  | 
w:  ARANAĞME  |   |   |   | 
dcB2 dcB2  | cdef fed2  | dcB2 dcB2  | cddd dcd2  | 
w:   |   |   |   | 
d3d d2d2  | fed2 fedc  | d3d d2d2  | cdef e2d2  | 
w:   |   |   |   | 
d3d d2d2  | cdef e2d2  | d3d d2d2  | d8  | \
w:   |   |   |  Hey   | 
d2g2 gg3  | g2g2 g2g2  | 
w:  Sul tan  Mu rat   |  der  ki  gel sin   | 
ee3 fed2  | gg3 gg3  | ef3 e2ed  | fedc d4  | \
w:  gö re yim    |  Na sıl  yi ğit   |  i se  ben  de   |  bi le *  *  yim    | 
dg3 g2g2  | 
w:  Ve zir lik  is  | 
g2fe e2e2  | fedc d4  | dg3 gg3  | g2ge fed2  | \
w:  ter se  *  üç  tuğ   |  ve re *  *  yim    |  Ve zir li ğe   |  şa yes *  tey *  miş   | 
cdef fed2  | 
w:  Genç  *  *  *  Os man   | 
dcB2 dcB2  | dcB2 dcB2  | A2Bc dcd2  | dcB2 dcB2  | 
w:  of  *  *  of    |  ARANAĞME  |   |   | 
cd/e/de d2d2  | dcB2 dcB2  | cdef fed2  | \
w:   |   |   | 
dcB2 dcB2  | 
w:   | 
cddd dcd2  | d3d d2d2  | fed2 fedc  | d3d d2d2  | 
w:   |   |   |   | 
cdef e2d2  | d3d d2d2  | cdef e2d2  | d3d d2d2  | d8  | 
w:   |   |   |   |  Hey   | 
d2g2 gg3  | g2g2 g2g2  | ee3 fed2  | gg3 gg3  | \
w:  Sul tan  Mu rat   |  der  ki  gel sin   |  gö re yim    |  Na sıl  yi ğit   | 
ef3 e2ed  | 
w:  i se  ben  de   | 
fedc d4  | dg3 g2g2  | g2fe e2e2  | fedc d4  | \
w:  bi le *  *  yim    |  Ve zir lik  is  |  ter se  *  üç  tuğ   |  ve re *  *  yim    | 
dg3 gg3  | 
w:  Ve zir li ğe   | 
g2ge fed2  | cdef fed2  | dcB2 dcB2  | |


